build/img/icon-plus.svg

<svg fill="none" height="16" viewBox="0 0 16 16" width="16" xmlns="http://www.w3.org/2000/svg"><path clip-rule="evenodd" d="m8.5 7.5v-7.5h-1v7.5h-7.5v1h7.5v7.5h1v-7.5h7.5v-1z" fill="#c4c4c4" fill-rule="evenodd"/></svg>

<svg width="16" height="16" viewBox="0 0 16 16" fill="none" xmlns="http://www.w3.org/2000/svg">
<path fill-rule="evenodd" clip-rule="evenodd" d="M8.5 7.5V0H7.5V7.5H0V8.5H7.5V16H8.5V8.5H16V7.5H8.5Z" fill="#C4C4C4"/>
</svg>
